src/assets/icons/cars/van_car.svg

<svg width="48" height="48" viewBox="0 0 48 48" fill="none" xmlns="http://www.w3.org/2000/svg">
<g id="Icons / Vertical Cars / Car bodytype van">
<path id="Fill 1" fill-rule="evenodd" clip-rule="evenodd" d="M21.8574 16H36.9304C37.5204 16 38.0004 16.48 38.0004 17.07V26H37.0004C36.4474 26 36.0004 26.448 36.0004 27C36.0004 27.552 36.4474 28 37.0004 28H38.0004V29.93C38.0004 30.52 37.5204 31 36.9304 31H35.4494C35.2094 29.584 33.9834 28.5 32.5004 28.5C31.0164 28.5 29.7904 29.584 29.5504 31H17.4494C17.2094 29.584 15.9834 28.5 14.5004 28.5C13.0164 28.5 11.7904 29.584 11.5504 31H11.0694C10.4804 31 10.0004 30.52 10.0004 29.93V25.401C10.0004 24.961 10.2644 24.571 10.6724 24.408L13.9764 23.086C14.0354 23.063 14.0854 23.027 14.1424 23H20.0004C20.5524 23 21.0004 22.552 21.0004 22C21.0004 21.448 20.5524 21 20.0004 21H16.4144L21.1004 16.313C21.2994 16.114 21.5754 16 21.8574 16ZM32.5004 32.5C31.9484 32.5 31.5004 32.051 31.5004 31.5C31.5004 30.949 31.9484 30.5 32.5004 30.5C33.0514 30.5 33.5004 30.949 33.5004 31.5C33.5004 32.051 33.0514 32.5 32.5004 32.5ZM14.5004 32.5C13.9484 32.5 13.5004 32.051 13.5004 31.5C13.5004 30.949 13.9484 30.5 14.5004 30.5C15.0514 30.5 15.5004 30.949 15.5004 31.5C15.5004 32.051 15.0514 32.5 14.5004 32.5ZM13.5934 20.993C13.4904 21.096 13.3694 21.175 13.2334 21.229L9.92937 22.551C8.75737 23.02 8.00037 24.139 8.00037 25.401V29.93C8.00037 31.623 9.37737 33 11.0694 33H11.9174C12.4374 33.892 13.3944 34.5 14.5004 34.5C15.6054 34.5 16.5624 33.892 17.0824 33H29.9174C30.4374 33.892 31.3944 34.5 32.5004 34.5C33.6054 34.5 34.5624 33.892 35.0824 33H36.9304C38.6234 33 40.0004 31.623 40.0004 29.93V17.07C40.0004 15.377 38.6234 14 36.9304 14H21.8574C21.0494 14 20.2574 14.328 19.6864 14.899L13.5934 20.993Z" fill="#253238"/>
</g>
</svg>

<svg width="48" height="48" viewBox="0 0 48 48" fill="none" xmlns="http://www.w3.org/2000/svg"><path fill-rule="evenodd" clip-rule="evenodd" d="M21.857 16H36.93c.59 0 1.07.48 1.07 1.07V26h-1a1 1 0 100 2h1v1.93c0 .59-.48 1.07-1.07 1.07h-1.48a2.998 2.998 0 00-2.95-2.5 2.998 2.998 0 00-2.95 2.5h-12.1a2.998 2.998 0 00-2.95-2.5 2.998 2.998 0 00-2.95 2.5h-.48c-.59 0-1.07-.48-1.07-1.07v-4.529c0-.44.264-.83.672-.993l3.304-1.322c.06-.023.11-.059.166-.086H20a1 1 0 000-2h-3.586l4.686-4.687c.2-.199.475-.313.757-.313zM32.5 32.5a1.001 1.001 0 010-2c.551 0 1 .449 1 1 0 .551-.449 1-1 1zm-18 0a1.001 1.001 0 010-2c.551 0 1 .449 1 1 0 .551-.449 1-1 1zm-.907-11.507a1.057 1.057 0 01-.36.236L9.93 22.551A3.055 3.055 0 008 25.401v4.529A3.073 3.073 0 0011.07 33h.847a2.99 2.99 0 002.583 1.5 2.99 2.99 0 002.582-1.5h12.835a2.99 2.99 0 002.583 1.5 2.99 2.99 0 002.582-1.5h1.848A3.073 3.073 0 0040 29.93V17.07A3.073 3.073 0 0036.93 14H21.857c-.808 0-1.6.328-2.17.899l-6.094 6.094z" fill="#253238"/></svg>
